X: 25686
T: Martin Wynne's
R: reel
M: 4/4
K: Dmajor
|:FdAF EEFE|D2B,B, DB,A,D|B,EEE EFDE|F2A/B/c cdAG|
FdAF EEFE|D2B,B, DB,A,D|B,EEE EFDE|F2BA ABBA:|
FdAF AAdA|Bdeg- gfde|efaf eafe|dBBA ABBA|
FdAF AAdA|Bdeg- gfde|efaf eafe|dBBA ABBA|
FdAF AAdA|Bdeg- gfde|efaf eafe|dBBA ABBA|
FdAF AAdA|Bdeg- gfda|baaf eafe|dBBA ABBA||

